X: 11512
T: The DARMSTADT WALTZ
%R: waltz
B: W. Hamilton "Universal Tune-Book" Vol. 1 Glasgow 1844 p.151 #2
S: http://imslp.org/wiki/Hamilton's_Universal_Tune-Book_(Various)
Z: 2016 John Chambers <jc:trillian.mit.edu>
M: 3/4
L: 1/8
K: G
% - - - - - - - - - - - - - - - - - - - - - - - - -
D2 |\
B2BAB2 | B2BAB2 | c2cBcB | c4c2 |\
c2cBc2 | c2cBc2 | d2(d^c)(dc) | d4G2 |\
d2d^cd2 | e2e^de2 | g4e2 | (ed)d2B2 |\
(dc)c2A2 | G2(GF)(GF) | G4 :|
|: (AG) |\
FAdfa2 | gagfed | ^cdefge | f2d2AG |\
FAdfa2 | gagfed | ^cdefge | d4 :|\
|: (3(ded) |\
B4(3(DED) | B4(3(ded) | B2G2d2 | (3(BcB)G2(3(ded) |
c4(3(DED) | F4(3(ded) | c2A2d2 | (3(cdc)A2d2 |\
G2GGGG | B2BBBB | d2d2d2 | d4 :|\
|: (Bc) |\
d3ed2 | d2b2a2 | g2f2f2 | f2c'2b2 |\
a2g2g2 | (ag)f2e2 | d3ed2 | (dc)B2A2 |
d3ed2 | d2b2a2 | g2f2f2 | f2c'2b2 |\
a2g2g2 | (ag)f2e2 | d3ed2 | (dc)B2A2 |\
G3ddd | f3ddd | g3ddd | f3ddd |\
gfgfgf | gfagfe | d2g2b2 | (ba)g2f2 |\
g3DGB |
A3DAc | B3DGB | A3DAc | B2gfgf |\
gfagfe | dgfed^c | dedcBA | G2(GF)(GF) |\
GFGFGF | G2(GF)(GF) | GFGFGF | G2z2z2 |\
G2B2d2 | g4 |]
% - - - - - - - - - - - - - - - - - - - - - - - - -

%%sep 1 1 500
%%sep 1 1 500

